X: 337
T: Sirba "Hay, Baez, la Zhok" (Come dance, Friends)
R: sirba
O: Rumania
Q: 1/4=160
B: German Goldenshteyn "Shpilt klezmorimlach klingen zoln di gesalach" New York 2003 v.3 #37
Z: 2012 John Chambers <jc:trillian.mit.edu>
N: The 2nd phrase had 3-bar endings, but their first bars were identical.
M: 2/4
L: 1/8
K: Am
|: e3 f | g2 a2 | g2 a2 | g3 e | f2 (3(fe)d | e2 (3(ed)c | d2 (3(dc)B | c2 z2 :|
|: e2 a2 | e3 c | d2 f2 | d3 c | Bc de | dc Bc |[1 AB cd | e2 z2 :|[2 A2 E2 | Az z2 |]
